X: 5
T:Fairhaired Boy
M:6/8
L:1/8
Q:180
R:Jig
K:A
A|EAA DAA|gfg edB|BAB edB|BAB GED|
EAA DAA|gfg edB|BAB edB|BAG A2::
d|eaa bag|eaa ged|BAB edB|BAB GDD|
eaa bag|eaa ged|BAB edB|BAG A2d|
eaa bag|eaa ged|BAB edB|BAB GED|
EAA EAA|gfg edB|BAB edB|BAG A2|
